img/two.svg

<svg height="48" viewBox="0 0 108 48" width="108" xmlns="http://www.w3.org/2000/svg"><path d="m25.4 33.9v7.8h-2.6v-19.3h6.6c.8 0 1.6.1 2.3.4.8.3 1.5.7 2 1.3.6.5 1 1.1 1.3 1.8s.5 1.5.5 2.3c0 .7-.2 1.5-.5 2.2s-.7 1.3-1.3 1.9c-1.1 1-2.7 1.6-4.2 1.6zm0-9.1v6.7h4.1c.5 0 .9-.1 1.3-.2.4-.2.8-.4 1.1-.8.4-.3.6-.6.8-1.1.2-.4.3-.8.3-1.3-.1-.9-.4-1.7-1.1-2.4-.6-.6-1.5-.9-2.4-.9zm16.7 3.3c1.6-.1 3.1.4 4.4 1.4.5.5.9 1.2 1.2 1.9s.4 1.4.3 2.1v8.2h-2.4v-1.9h-.1c-.4.7-1 1.3-1.7 1.7s-1.5.6-2.4.6c-1.3.1-2.6-.4-3.6-1.3-.5-.4-.8-.9-1.1-1.4-.3-.6-.4-1.2-.4-1.8s.1-1.2.4-1.8.7-1.1 1.2-1.5c1.2-.8 2.6-1.2 4.1-1.2 1.3 0 2.5.3 3.6.8v-.5c0-.4 0-.9-.2-1.2-.2-.4-.4-.7-.8-1-.6-.6-1.5-.9-2.4-.9-.6 0-1.3.1-1.8.4-.6.3-1.1.8-1.5 1.3l-2.1-1.4c.6-.8 1.4-1.5 2.3-2 .9-.4 2-.6 3-.5zm-3.2 9.5c0 .4.1.7.2 1 .2.3.4.5.6.7.6.4 1.3.7 2 .6 1 0 2-.4 2.8-1.1.3-.4.7-.8.9-1.2.2-.5.3-1 .3-1.5-.9-.7-2.1-1-3.2-.9-.9-.1-1.8.2-2.5.7-.3.2-.6.4-.8.7s-.3.7-.3 1zm11.9-9.1h2.4v2.1h.2c.7-1.7 2.2-2.5 4.5-2.5h.5v2.5l-1.1-.1c-1 0-2.1.4-2.8 1.1-.4.3-.7.8-.9 1.2-.2.5-.3 1-.2 1.5v7.3h-2.6zm15.5 13.3c-1 .1-2-.3-2.7-1-.4-.3-.6-.8-.8-1.2-.2-.5-.3-1-.3-1.5v-7.4h-2.3v-2.2h2.3v-4.1h2.6v4.1h3.2v2.2h-3.3v6.6c0 .3 0 .7.1 1s.2.6.4.8c.3.3.7.5 1.2.5.2 0 .4-.1.5-.1.2 0 .4-.1.6-.2l.8 2.2c-.8.3-1.5.4-2.3.3zm4.4-13.3h2.4v1.8h.1c.4-.7 1-1.2 1.7-1.6.8-.4 1.6-.6 2.5-.6.7-.1 1.4 0 2 .2.7.3 1.2.7 1.7 1.1 1 1.1 1.4 2.6 1.3 4v8.3h-2.5v-8.2c0-.4 0-.8-.2-1.3-.1-.4-.4-.8-.7-1.1s-.7-.5-1.1-.7c-.4-.1-.8-.1-1.3-.1s-.9.1-1.4.3c-.4.2-.8.5-1.1.9-.6.8-1 1.8-1 2.9v7.3h-2.5zm20.6 13.6c-.9 0-1.8-.1-2.6-.5-.9-.3-1.6-.8-2.2-1.5s-1.1-1.5-1.5-2.3c-.3-.9-.4-1.8-.4-2.8-.1-1.8.6-3.6 1.8-5 .6-.7 1.4-1.2 2.2-1.5s1.6-.5 2.5-.5 1.7.1 2.5.4c.8.4 1.6.8 2.2 1.5 1.2 1.4 1.8 3.4 1.7 5.3v.2h-10.4c0 .6.1 1.2.3 1.7.2.6.6 1.1 1 1.5s1 .8 1.6 1c.7.2 1.4.3 2 .2.7-.1 1.3-.4 1.8-.8.6-.4 1-.9 1.3-1.5l2.2 1.1c-.6 1-1.4 1.9-2.5 2.6-1 .6-2.3.9-3.5.9zm3.6-8.6c0-.5-.1-.9-.3-1.3s-.5-.7-.8-1c-.7-.6-1.7-.9-2.7-.9-.9 0-1.7.3-2.4.9s-1.2 1.4-1.4 2.3zm7.3 8.2h-2.4v-13.2h2.3v2.1h.1c.3-.7.9-1.4 1.6-1.8s1.5-.7 2.3-.7c.6 0 1.2.1 1.8.3l-.7 2.4c-.5-.1-1-.2-1.5-.2s-.9.1-1.3.3c-.5.2-.8.5-1.1.9-.7.7-1.1 1.6-1.1 2.6zm-73.7-30.6v1.7h4c0 .5-.1 1-.3 1.4-.3.5-.6.8-.9 1.2-.9.6-2 .9-3.1.8s-2.1-.6-2.8-1.3c-.5-.5-.8-1-1-1.5s-.3-1.1-.3-1.7.1-1.2.3-1.7c.2-.6.5-1.1 1-1.5.4-.4.9-.7 1.4-.9.5-.3 1.1-.4 1.7-.3 1.1-.1 2.2.4 3 1.2l1.2-1.2c-.5-.6-1.2-1-1.9-1.3s-1.5-.4-2.3-.4c-1.1-.1-2.2.2-3.1.7-1 .6-1.8 1.4-2.4 2.3-.4.7-.6 1.5-.7 2.3-.2.8-.1 1.6.1 2.4s.6 1.5 1.1 2.1c.5.7 1.1 1.2 1.9 1.6.9.6 2 .9 3.1.9.7 0 1.5-.1 2.2-.4s1.3-.7 1.9-1.2c.5-.5 1-1.2 1.3-1.9.2-.7.4-1.5.3-2.2.1-.4.1-.7 0-1.1zm10.3-1.2c-.5 0-1 .1-1.5.3s-.9.5-1.3.9-.7.8-.9 1.3-.3 1-.2 1.5c-.1.6 0 1.1.2 1.6s.5 1 .8 1.4c.4.4.9.7 1.4.9s1 .4 1.5.4c.6 0 1.1-.2 1.6-.4s1-.5 1.3-.9c.4-.4.7-.9.9-1.4s.2-1 .2-1.6c0-.5-.1-1-.3-1.5s-.5-.9-.8-1.3c-.4-.3-.8-.6-1.3-.8s-1-.3-1.6-.3zm1.6 5.7c-.2.2-.4.4-.7.5s-.6.2-.9.2-.6-.1-.8-.2c-.3-.1-.5-.3-.8-.5-.4-.5-.6-1-.6-1.7 0-.3 0-.6.2-.9.1-.3.2-.5.4-.8.3-.2.5-.4.8-.5.2-.1.5-.1.8-.1s.6 0 .9.1.5.3.7.5c.2.3.4.5.5.8s.2.6.2.9c0 .7-.3 1.2-.7 1.7zm22.3-9.6h-1.7v11.6h1.7zm-15.2 3.9c-.5 0-1 .1-1.5.3s-1 .5-1.3.9c-.4.3-.7.8-.9 1.3s-.3 1-.3 1.5c0 1.1.5 2.1 1.2 2.9.7.7 1.8 1.1 2.8 1.1 1.1 0 2.1-.4 2.8-1.1.8-.8 1.2-1.8 1.2-2.9 0-.5-.1-1-.3-1.5s-.5-.9-.9-1.3c-.3-.3-.8-.6-1.3-.8-.4-.2-1-.3-1.5-.3zm1.6 5.7c-.2.2-.5.4-.7.5-.3.1-.6.2-.9.2s-.6-.1-.9-.2c-.2-.1-.5-.3-.7-.5-.4-.5-.6-1-.6-1.7 0-.3 0-.6.1-.9s.3-.5.5-.8c.2-.2.5-.4.7-.5.3-.1.6-.2.9-.2s.6.1.9.2.5.3.7.5c.2.3.4.5.5.8s.2.6.1.9c0 .7-.2 1.2-.6 1.7zm18.4.7c-.4 0-.8-.1-1.1-.3-.4-.2-.6-.5-.8-.9l5.3-2.2-.2-.5c-.1-.3-.3-.7-.5-1s-.5-.6-.8-.8-.6-.4-.9-.5c-.4-.1-.8-.2-1.1-.1-.5-.1-1 0-1.5.2s-.9.5-1.2.8c-.4.4-.7.9-.9 1.4-.1.5-.2 1-.2 1.5 0 .6.1 1.1.3 1.6s.5.9.8 1.3c.4.4.9.7 1.5.9s1.1.3 1.7.2 1.2-.3 1.7-.6.9-.7 1.2-1.1l-1.3-1c-.2.3-.5.6-.9.8-.3.2-.7.3-1.1.3zm-1.6-4.2c.2-.2.4-.4.7-.5.2-.1.5-.2.8-.2s.6.1.9.3c.3.1.5.3.6.6l-3.6 1.4c0-.3.1-.6.2-.8.1-.3.2-.6.4-.8zm-7.7-1.3c-.3-.3-.6-.5-1-.7-.4-.1-.7-.2-1.1-.2-.5 0-1 .1-1.5.3s-.9.5-1.2.9c-.7.7-1.1 1.7-1.1 2.8 0 1 .4 2 1.1 2.8.3.4.7.6 1.2.8s1 .3 1.5.4c.4 0 .8-.1 1.1-.3.4-.1.7-.4 1-.6v.4c0 1.6-.7 2.5-2.2 2.5-.4 0-.8-.1-1.2-.4-.3-.3-.6-.6-.8-1l-1.5.6c.2.4.4.7.6 1s.5.5.8.7.6.4 1 .5.8.2 1.1.2c.6 0 1.1-.1 1.6-.3.4-.2.9-.5 1.2-.9.7-.9 1.1-2 1-3.1v-7.1h-1.6zm-.5 4.8c-.2.2-.5.4-.7.5-.3.1-.6.2-.8.2-.3 0-.6-.1-.9-.2s-.5-.3-.7-.5c-.4-.5-.7-1.1-.6-1.7-.1-.6.2-1.3.6-1.7.2-.2.4-.4.7-.5.3-.2.6-.2.9-.2.2 0 .5 0 .8.2.2.1.5.3.7.5.4.5.6 1.1.6 1.7 0 .7-.2 1.3-.6 1.7zm-45.1-15.6h-12.6v48h12.6z"/></svg>

<svg xmlns="http://www.w3.org/2000/svg" width="108" height="48" viewBox="0 0 108 48"><path d="M25.4 33.9V41.7H22.8V22.4H29.4C30.2 22.4 31 22.5 31.7 22.8 32.5 23.1 33.2 23.5 33.7 24.1 34.3 24.6 34.7 25.2 35 25.9 35.3 26.6 35.5 27.4 35.5 28.2 35.5 28.9 35.3 29.7 35 30.4 34.7 31.1 34.3 31.7 33.7 32.3 32.6 33.3 31 33.9 29.5 33.9L25.4 33.9ZM25.4 24.8V31.5H29.5C30 31.5 30.4 31.4 30.8 31.3 31.2 31.1 31.6 30.9 31.9 30.5 32.3 30.2 32.5 29.9 32.7 29.4 32.9 29 33 28.6 33 28.1 32.9 27.2 32.6 26.4 31.9 25.7 31.3 25.1 30.4 24.8 29.5 24.8H25.4ZM42.1 28.1C43.7 28 45.2 28.5 46.5 29.5 47 30 47.4 30.7 47.7 31.4 48 32.1 48.1 32.8 48 33.5V41.7H45.6V39.8H45.5C45.1 40.5 44.5 41.1 43.8 41.5 43.1 41.9 42.3 42.1 41.4 42.1 40.1 42.2 38.8 41.7 37.8 40.8 37.3 40.4 37 39.9 36.7 39.4 36.4 38.8 36.3 38.2 36.3 37.6 36.3 37 36.4 36.4 36.7 35.8 37 35.2 37.4 34.7 37.9 34.3 39.1 33.5 40.5 33.1 42 33.1 43.3 33.1 44.5 33.4 45.6 33.9V33.4C45.6 33 45.6 32.5 45.4 32.2 45.2 31.8 45 31.5 44.6 31.2 44 30.6 43.1 30.3 42.2 30.3 41.6 30.3 40.9 30.4 40.4 30.7 39.8 31 39.3 31.5 38.9 32L36.8 30.6C37.4 29.8 38.2 29.1 39.1 28.6 40 28.2 41.1 28 42.1 28.1ZM38.9 37.6C38.9 38 39 38.3 39.1 38.6 39.3 38.9 39.5 39.1 39.7 39.3 40.3 39.7 41 40 41.7 39.9 42.7 39.9 43.7 39.5 44.5 38.8 44.8 38.4 45.2 38 45.4 37.6 45.6 37.1 45.7 36.6 45.7 36.1 44.8 35.4 43.6 35.1 42.5 35.2 41.6 35.1 40.7 35.4 40 35.9 39.7 36.1 39.4 36.3 39.2 36.6 39 36.9 38.9 37.3 38.9 37.6ZM50.8 28.5H53.2V30.6H53.4C54.1 28.9 55.6 28.1 57.9 28.1H58.4V30.6L57.3 30.5C56.3 30.5 55.2 30.9 54.5 31.6 54.1 31.9 53.8 32.4 53.6 32.8 53.4 33.3 53.3 33.8 53.4 34.3V41.6H50.8V28.5ZM66.3 41.8C65.3 41.9 64.3 41.5 63.6 40.8 63.2 40.5 63 40 62.8 39.6 62.6 39.1 62.5 38.6 62.5 38.1V30.7H60.2V28.5H62.5V24.4H65.1V28.5H68.3V30.7H65V37.3C65 37.6 65 38 65.1 38.3 65.2 38.6 65.3 38.9 65.5 39.1 65.8 39.4 66.2 39.6 66.7 39.6 66.9 39.6 67.1 39.5 67.2 39.5 67.4 39.5 67.6 39.4 67.8 39.3L68.6 41.5C67.8 41.8 67.1 41.9 66.3 41.8ZM70.7 28.5H73.1V30.3H73.2C73.6 29.6 74.2 29.1 74.9 28.7 75.7 28.3 76.5 28.1 77.4 28.1 78.1 28 78.8 28.1 79.4 28.3 80.1 28.6 80.6 29 81.1 29.4 82.1 30.5 82.5 32 82.4 33.4V41.7H79.9V33.5C79.9 33.1 79.9 32.7 79.7 32.2 79.6 31.8 79.3 31.4 79 31.1 78.7 30.8 78.3 30.6 77.9 30.4 77.5 30.3 77.1 30.3 76.6 30.3 76.1 30.3 75.7 30.4 75.2 30.6 74.8 30.8 74.4 31.1 74.1 31.5 73.5 32.3 73.1 33.3 73.1 34.4V41.7H70.6L70.7 28.5ZM91.3 42.1C90.4 42.1 89.5 42 88.7 41.6 87.8 41.3 87.1 40.8 86.5 40.1 85.9 39.4 85.4 38.6 85 37.8 84.7 36.9 84.6 36 84.6 35 84.5 33.2 85.2 31.4 86.4 30 87 29.3 87.8 28.8 88.6 28.5 89.4 28.2 90.2 28 91.1 28 92 28 92.8 28.1 93.6 28.4 94.4 28.8 95.2 29.2 95.8 29.9 97 31.3 97.6 33.3 97.5 35.2V35.4H87.1C87.1 36 87.2 36.6 87.4 37.1 87.6 37.7 88 38.2 88.4 38.6 88.8 39 89.4 39.4 90 39.6 90.7 39.8 91.4 39.9 92 39.8 92.7 39.7 93.3 39.4 93.8 39 94.4 38.6 94.8 38.1 95.1 37.5L97.3 38.6C96.7 39.6 95.9 40.5 94.8 41.2 93.8 41.8 92.5 42.1 91.3 42.1ZM94.9 33.5C94.9 33 94.8 32.6 94.6 32.2 94.4 31.8 94.1 31.5 93.8 31.2 93.1 30.6 92.1 30.3 91.1 30.3 90.2 30.3 89.4 30.6 88.7 31.2 88 31.8 87.5 32.6 87.3 33.5H94.9ZM102.2 41.7H99.8V28.5H102.1V30.6H102.2C102.5 29.9 103.1 29.2 103.8 28.8 104.5 28.4 105.3 28.1 106.1 28.1 106.7 28.1 107.3 28.2 107.9 28.4L107.2 30.8C106.7 30.7 106.2 30.6 105.7 30.6 105.2 30.6 104.8 30.7 104.4 30.9 103.9 31.1 103.6 31.4 103.3 31.8 102.6 32.5 102.2 33.4 102.2 34.4V41.7ZM28.5 11.1V12.8H32.5C32.5 13.3 32.4 13.8 32.2 14.2 31.9 14.7 31.6 15 31.3 15.4 30.4 16 29.3 16.3 28.2 16.2 27.1 16.1 26.1 15.6 25.4 14.9 24.9 14.4 24.6 13.9 24.4 13.4 24.2 12.9 24.1 12.3 24.1 11.7 24.1 11.1 24.2 10.5 24.4 10 24.6 9.4 24.9 8.9 25.4 8.5 25.8 8.1 26.3 7.8 26.8 7.6 27.3 7.3 27.9 7.2 28.5 7.3 29.6 7.2 30.7 7.7 31.5 8.5L32.7 7.3C32.2 6.7 31.5 6.3 30.8 6 30.1 5.7 29.3 5.6 28.5 5.6 27.4 5.5 26.3 5.8 25.4 6.3 24.4 6.9 23.6 7.7 23 8.6 22.6 9.3 22.4 10.1 22.3 10.9 22.1 11.7 22.2 12.5 22.4 13.3 22.6 14.1 23 14.8 23.5 15.4 24 16.1 24.6 16.6 25.4 17 26.3 17.6 27.4 17.9 28.5 17.9 29.2 17.9 30 17.8 30.7 17.5 31.4 17.2 32 16.8 32.6 16.3 33.1 15.8 33.6 15.1 33.9 14.4 34.1 13.7 34.3 12.9 34.2 12.2 34.3 11.8 34.3 11.5 34.2 11.1H28.5ZM38.8 9.9C38.3 9.9 37.8 10 37.3 10.2 36.8 10.4 36.4 10.7 36 11.1 35.6 11.5 35.3 11.9 35.1 12.4 34.9 12.9 34.8 13.4 34.9 13.9 34.8 14.5 34.9 15 35.1 15.5 35.3 16 35.6 16.5 35.9 16.9 36.3 17.3 36.8 17.6 37.3 17.8 37.8 18 38.3 18.2 38.8 18.2 39.4 18.2 39.9 18 40.4 17.8 40.9 17.6 41.4 17.3 41.7 16.9 42.1 16.5 42.4 16 42.6 15.5 42.8 15 42.8 14.5 42.8 13.9 42.8 13.4 42.7 12.9 42.5 12.4 42.3 11.9 42 11.5 41.7 11.1 41.3 10.8 40.9 10.5 40.4 10.3 39.9 10.1 39.4 10 38.8 10V9.9ZM40.4 15.6C40.2 15.8 40 16 39.7 16.1 39.4 16.2 39.1 16.3 38.8 16.3 38.5 16.3 38.2 16.2 38 16.1 37.7 16 37.5 15.8 37.2 15.6 36.8 15.1 36.6 14.6 36.6 13.9 36.6 13.6 36.6 13.3 36.8 13 36.9 12.7 37 12.5 37.2 12.2 37.5 12 37.7 11.8 38 11.7 38.2 11.6 38.5 11.6 38.8 11.6 39.1 11.6 39.4 11.6 39.7 11.7 40 11.8 40.2 12 40.4 12.2 40.6 12.5 40.8 12.7 40.9 13 41 13.3 41.1 13.6 41.1 13.9 41.1 14.6 40.8 15.1 40.4 15.6ZM62.7 6H61V17.6H62.7V6ZM47.5 9.9C47 9.9 46.5 10 46 10.2 45.5 10.4 45 10.7 44.7 11.1 44.3 11.4 44 11.9 43.8 12.4 43.6 12.9 43.5 13.4 43.5 13.9 43.5 15 44 16 44.7 16.8 45.4 17.5 46.5 17.9 47.5 17.9 48.6 17.9 49.6 17.5 50.3 16.8 51.1 16 51.5 15 51.5 13.9 51.5 13.4 51.4 12.9 51.2 12.4 51 11.9 50.7 11.5 50.3 11.1 50 10.8 49.5 10.5 49 10.3 48.6 10.1 48 10 47.5 10V9.9ZM49.1 15.6C48.9 15.8 48.6 16 48.4 16.1 48.1 16.2 47.8 16.3 47.5 16.3 47.2 16.3 46.9 16.2 46.6 16.1 46.4 16 46.1 15.8 45.9 15.6 45.5 15.1 45.3 14.6 45.3 13.9 45.3 13.6 45.3 13.3 45.4 13 45.5 12.7 45.7 12.5 45.9 12.2 46.1 12 46.4 11.8 46.6 11.7 46.9 11.6 47.2 11.5 47.5 11.5 47.8 11.5 48.1 11.6 48.4 11.7 48.7 11.8 48.9 12 49.1 12.2 49.3 12.5 49.5 12.7 49.6 13 49.7 13.3 49.8 13.6 49.7 13.9 49.7 14.6 49.5 15.1 49.1 15.6ZM67.5 16.3C67.1 16.3 66.7 16.2 66.4 16 66 15.8 65.8 15.5 65.6 15.1L70.9 12.9 70.7 12.4C70.6 12.1 70.4 11.7 70.2 11.4 70 11.1 69.7 10.8 69.4 10.6 69.1 10.4 68.8 10.2 68.5 10.1 68.1 10 67.7 9.9 67.4 10 66.9 9.9 66.4 10 65.9 10.2 65.4 10.4 65 10.7 64.7 11 64.3 11.4 64 11.9 63.8 12.4 63.7 12.9 63.6 13.4 63.6 13.9 63.6 14.5 63.7 15 63.9 15.5 64.1 16 64.4 16.4 64.7 16.8 65.1 17.2 65.6 17.5 66.2 17.7 66.8 17.9 67.3 18 67.9 17.9 68.5 17.8 69.1 17.6 69.6 17.3 70.1 17 70.5 16.6 70.8 16.2L69.5 15.2C69.3 15.5 69 15.8 68.6 16 68.3 16.2 67.9 16.3 67.5 16.3ZM65.9 12.1C66.1 11.9 66.3 11.7 66.6 11.6 66.8 11.5 67.1 11.4 67.4 11.4 67.7 11.4 68 11.5 68.3 11.7 68.6 11.8 68.8 12 68.9 12.3L65.3 13.7C65.3 13.4 65.4 13.1 65.5 12.9 65.6 12.6 65.7 12.3 65.9 12.1ZM58.2 10.8C57.9 10.5 57.6 10.3 57.2 10.1 56.8 10 56.5 9.9 56.1 9.9 55.6 9.9 55.1 10 54.6 10.2 54.1 10.4 53.7 10.7 53.4 11.1 52.7 11.8 52.3 12.8 52.3 13.9 52.3 14.9 52.7 15.9 53.4 16.7 53.7 17.1 54.1 17.3 54.6 17.5 55.1 17.7 55.6 17.8 56.1 17.9 56.5 17.9 56.9 17.8 57.2 17.6 57.6 17.5 57.9 17.2 58.2 17V17.4C58.2 19 57.5 19.9 56 19.9 55.6 19.9 55.2 19.8 54.8 19.5 54.5 19.2 54.2 18.9 54 18.5L52.5 19.1C52.7 19.5 52.9 19.8 53.1 20.1 53.3 20.4 53.6 20.6 53.9 20.8 54.2 21 54.5 21.2 54.9 21.3 55.3 21.4 55.7 21.5 56 21.5 56.6 21.5 57.1 21.4 57.6 21.2 58 21 58.5 20.7 58.8 20.3 59.5 19.4 59.9 18.3 59.8 17.2V10.1H58.2V10.8ZM57.7 15.6C57.5 15.8 57.2 16 57 16.1 56.7 16.2 56.4 16.3 56.2 16.3 55.9 16.3 55.6 16.2 55.3 16.1 55 16 54.8 15.8 54.6 15.6 54.2 15.1 53.9 14.5 54 13.9 53.9 13.3 54.2 12.6 54.6 12.2 54.8 12 55 11.8 55.3 11.7 55.6 11.5 55.9 11.5 56.2 11.5 56.4 11.5 56.7 11.5 57 11.7 57.2 11.8 57.5 12 57.7 12.2 58.1 12.7 58.3 13.3 58.3 13.9 58.3 14.6 58.1 15.2 57.7 15.6ZM12.6 0H0V48H12.6V0Z"/></svg>
